X: 20731
T: Johnny Dennehy's
R: polka
M: 2/4
K: Amajor
ce A>B|ce fe|ce A>B|cB B2|
ce A>B|ce fe|ce fg|ba a2:|
ae fe|ae fe|c2 A>B|cB B2|
ae fe|ae fe|ce fg|ba a2:|

